storage/app/icons/phosphoricons/bold/plus-square-bold.svg

<svg xmlns="http://www.w3.org/2000/svg" fill="currentColor" viewBox="0 0 256 256"><path d="M208 28H48a20 20 0 0 0-20 20v160a20 20 0 0 0 20 20h160a20 20 0 0 0 20-20V48a20 20 0 0 0-20-20m-4 176H52V52h152ZM76 128a12 12 0 0 1 12-12h28V88a12 12 0 0 1 24 0v28h28a12 12 0 0 1 0 24h-28v28a12 12 0 0 1-24 0v-28H88a12 12 0 0 1-12-12"/></svg>

<svg xmlns="http://www.w3.org/2000/svg" viewBox="0 0 256 256" fill="currentColor"><path d="M208,28H48A20,20,0,0,0,28,48V208a20,20,0,0,0,20,20H208a20,20,0,0,0,20-20V48A20,20,0,0,0,208,28Zm-4,176H52V52H204ZM76,128a12,12,0,0,1,12-12h28V88a12,12,0,0,1,24,0v28h28a12,12,0,0,1,0,24H140v28a12,12,0,0,1-24,0V140H88A12,12,0,0,1,76,128Z"/></svg>
